svgs/solid/arrow-trend-up.svg

<svg xmlns="http://www.w3.org/2000/svg" viewBox="0 0 576 512"><!-- Font Awesome Pro 6.0.0-alpha2 by @fontawesome - https://fontawesome.com License - https://fontawesome.com/license (Commercial License) --><path d="M576 128V288C576 305.672 561.688 320 544 320S512 305.672 512 288V205.25L342.625 374.625C336.375 380.875 328.188 384 320 384S303.625 380.875 297.375 374.625L192 269.25L54.625 406.625C48.375 412.875 40.188 416 32 416C13.721 416 0 401.053 0 384C0 375.812 3.125 367.625 9.375 361.375L169.375 201.375C175.625 195.125 183.812 192 192 192S208.375 195.125 214.625 201.375L320 306.75L466.75 160H384C366.312 160 352 145.672 352 128S366.312 96 384 96H544C560.775 96 576 109.372 576 128Z"/></svg>

<svg xmlns="http://www.w3.org/2000/svg" viewBox="0 0 576 512"><!--! Font Awesome Pro 6.0.0-alpha3 by @fontawesome - https://fontawesome.com License - https://fontawesome.com/license (Commercial License) --><path d="M576 128v160c0 17.67-14.31 32-32 32s-32-14.33-32-32V205.3l-169.4 169.4C336.4 380.9 328.2 384 320 384s-16.38-3.125-22.62-9.375L192 269.3l-137.4 137.4C48.38 412.9 40.19 416 32 416c-18.28 0-32-14.95-32-32c0-8.188 3.125-16.38 9.375-22.62l160-160C175.6 195.1 183.8 192 192 192s16.38 3.125 22.62 9.375L320 306.8L466.8 160H384c-17.69 0-32-14.33-32-32s14.31-32 32-32h160C560.8 96 576 109.4 576 128z"/></svg>
